X:490
T: Pit Leary's
S: "Johnny O'Leary of Sliabh Luachra" (#117)
Z: B.Black
L: 1/8
M: 6/8
R: jig
K: D
dB|AFF AdB|AFF F/G/FE|DFD AFA|BEE EFG|
AF/G/A AdB|AFF F2A|dcd ede|fdc d2B|
AF/G/A AdB|AF/G/A F/G/FE|DFD AFA|BEE EFG|
AF/G/A AdB|AFA F/G/FE|d2f ede|fdc d3 ||
d/e/fe d/e/dB|BAB d2e|fdd add|fee efe|
dfe d/e/dB|AF/G/A d z e|f>ef afd|efe d3|
d/e/fe d/e/dB|BAB d2e|f2f afd|fee efe|
dfe d/e/dB|BAB d2e|fef afd|efe d3 ||
